web-magafilio/image/home/icon-receba.svg

<svg width="43" height="43" viewBox="0 0 43 43" fill="none" xmlns="http://www.w3.org/2000/svg">
<path d="M21.469 0.0383301C9.62114 0.0383301 0.0217896 9.63768 0.0217896 21.4855C0.0217896 33.3334 9.62114 42.9327 21.469 42.9327C33.3168 42.9327 42.9162 33.3334 42.9162 21.4855C42.9162 9.63768 33.3168 0.0383301 21.469 0.0383301ZM21.469 40.1653C11.0913 40.1653 2.78917 31.8632 2.78917 21.4855C2.78917 11.1943 11.0913 2.80571 21.469 2.80571C31.7602 2.80571 40.1488 11.1943 40.1488 21.4855C40.1488 31.8632 31.7602 40.1653 21.469 40.1653ZM24.9282 21.0531L18.7016 19.3235C17.6638 19.0641 16.8855 18.1128 16.8855 16.9885C16.8855 15.6913 18.0098 14.5671 19.3934 14.5671H23.2851C24.2364 14.5671 25.1876 14.913 25.8795 15.5184C26.2254 15.6913 26.5713 15.6913 26.8308 15.4319L27.7821 14.3941C28.0415 14.1347 28.0415 13.6158 27.6956 13.3563C26.4849 12.4051 24.9282 11.7997 23.2851 11.7997H22.8527V8.34047C22.8527 7.99455 22.5068 7.64862 22.1608 7.64862H20.7771C20.3447 7.64862 20.0853 7.99455 20.0853 8.34047V11.7997H19.3934C16.4531 11.7997 14.1181 14.1347 14.1181 16.9885C14.1181 19.3235 15.6748 21.3126 17.9233 22.0044L24.1499 23.734C25.1876 23.9935 25.966 24.9447 25.966 26.069C25.966 27.3662 24.8417 28.404 23.458 28.404H19.5664C18.6151 28.404 17.6638 28.1445 16.972 27.5392C16.6261 27.3662 16.2801 27.3662 16.0207 27.6256L15.0694 28.6634C14.81 28.9229 14.81 29.4417 15.1559 29.7012C16.3666 30.6525 17.9233 31.1714 19.5664 31.1714H20.0853V34.6306C20.0853 35.063 20.3447 35.3224 20.7771 35.3224H22.1608C22.5068 35.3224 22.8527 35.063 22.8527 34.6306V31.1714H23.458C26.3984 31.1714 28.7334 28.9229 28.7334 26.069C28.7334 23.734 27.1767 21.6585 24.9282 21.0531Z" fill="#FDAA08"/>
</svg>

<svg width="43" height="43" fill="none" xmlns="http://www.w3.org/2000/svg"><path d="M21.469.038C9.621.038.022 9.638.022 21.485c0 11.848 9.6 21.448 21.447 21.448 11.848 0 21.447-9.6 21.447-21.448 0-11.847-9.6-21.447-21.447-21.447zm0 40.127a18.602 18.602 0 01-18.68-18.68c0-10.29 8.302-18.68 18.68-18.68 10.291 0 18.68 8.39 18.68 18.68 0 10.378-8.389 18.68-18.68 18.68zm3.46-19.112l-6.227-1.73a2.413 2.413 0 01-1.817-2.335c0-1.297 1.125-2.42 2.508-2.42h3.892c.951 0 1.903.345 2.595.95.345.173.691.173.95-.086l.952-1.038a.712.712 0 00-.086-1.038c-1.211-.95-2.768-1.556-4.41-1.556h-.433V8.34c0-.345-.346-.691-.692-.691h-1.384a.682.682 0 00-.692.691v3.46h-.692c-2.94 0-5.275 2.335-5.275 5.188 0 2.335 1.557 4.325 3.805 5.016l6.227 1.73a2.413 2.413 0 011.816 2.335c0 1.297-1.124 2.335-2.508 2.335h-3.892c-.95 0-1.902-.26-2.594-.865-.346-.173-.692-.173-.951.087l-.952 1.037c-.259.26-.259.779.087 1.038 1.21.951 2.767 1.47 4.41 1.47h.52v3.46c0 .432.259.691.691.691h1.384c.346 0 .692-.259.692-.691v-3.46h.605c2.94 0 5.275-2.248 5.275-5.102 0-2.335-1.556-4.41-3.805-5.016z" fill="#FDAA08"/></svg>
